!!!OTL: Die Winterrosen (27), S. 107
!!!id: T0150
**kern
*clefG2
*k[f#]
*G:
{8b
=1
8b
8g
8g
8b
=2
16b
16a
16a
16a
8a}
=3
{8g
=4
8g
8g
8f#
8e
=5
4e
8d}
=6
{8d
=7
8e
8e
8g
8e
=8
8e
8d
8d}
=9
{8d
=10
8g
8a
8b
8g
=11
4a
8g}
==
*-
!!!minrhy: 16
!!!meters: 2/4 ]  ZZ[4
!!!cut: Die Winterrosen (27), S. 107
!!!reg: Luxemburg
!!!trd: Singendes Volk, Esch-Alzette 1937 posth.
!!!rhy1: X_  X_X_X_X_  XXXXX_
!!!rhy2: X_  X_X_X_X_  X__X_
!!!key: T0150  16  G 2/4 ]  ZZ[4
!!!mod: SECHSTONSKALA DUR ?]  AMBITUS[6
!!!kad: 2-5-51
!!!akz: 33_1-6_-6-6_12_
!!!fot: 'a__b__c__bs"
!!!for: 'a__b__c__b__
!!!fok: '\__\__^__^a_
!! PHRAS[AUFTAKTIG]
!!!fkt: Liebeslieder
!!!bem: Blascheid, fff Magd von Kemp, 1902
!! THILL, Mathias:
!! PR[35] 2K[5] 2G[13] 3K[3] 3G[5] 4A[5] 4Ü[0] 5A[0] 6K[0] 6G[0]
!! 7K[0] 7G[0] 8A[0] MEHR[0] SI[30] ABS[40] SR[18] SP[13]
!! ST[13] 2k[5] 2g[25] 3k[5] 3g[0] 4d[0] 4ü[0] 5d[0] 6k[0] 6g[0]
!! 7k[0] 7g[0] 8d[0] mehr[0] si[35] dm[-5] sr[30] sp[5]
!! 1F[22] 2F[49] 3F[29] 4F[0] LF[0] 2P[0] 3P[0] 4P[0] TRI[0] DF[3] AB[45]
!! TF[0] U3K[0] U3[0] U4[0] U4Ü[0] U5[0] U6K[0] U6[0] U7K[0] U7[0]
!! N1[2] N2K[0] N2[12] N3K[0] N3[20] N4[10] N4Ü[0] N5[37] N6K[0] N6[15]
!!!n7k: 0] N7[0] O1[2] O2K[0] O2[2] O3K[0] O3[0] HÖ[0
